flaticon/transport/bicycle-1.svg

<svg xmlns="http://www.w3.org/2000/svg" width="32" height="32" viewBox="0 0 24 24">
    <path d="M 20 10.199219 C 19.347656 10.199219 18.730469 10.359375 18.183594 10.640625 L 16.792969 8.476562 C 16.777344 8.429688 16.75 8.386719 16.714844 8.351562 L 15.558594 6.039062 C 15.480469 5.878906 15.359375 5.800781 15.199219 5.800781 L 13.601562 5.800781 C 13.359375 5.800781 13.199219 5.960938 13.199219 6.199219 C 13.199219 6.441406 13.359375 6.601562 13.601562 6.601562 L 14.960938 6.601562 L 15.761719 8.199219 L 7.839844 8.199219 L 7.121094 7 L 8.398438 7 C 8.640625 7 8.800781 6.839844 8.800781 6.601562 C 8.800781 6.359375 8.640625 6.199219 8.398438 6.199219 L 5.601562 6.199219 C 5.359375 6.199219 5.199219 6.359375 5.199219 6.601562 C 5.199219 6.839844 5.359375 7 5.601562 7 L 6.160156 7 L 7.121094 8.605469 L 5.816406 10.640625 C 5.269531 10.359375 4.652344 10.199219 4 10.199219 C 1.800781 10.199219 0 12 0 14.199219 C 0 16.398438 1.800781 18.199219 4 18.199219 C 5.914062 18.199219 7.523438 16.839844 7.910156 15.039062 L 11.160156 15.398438 L 11.199219 15.398438 C 11.320312 15.398438 11.441406 15.359375 11.519531 15.28125 L 16.386719 9.292969 L 17.519531 11.070312 C 16.59375 11.804688 16 12.9375 16 14.199219 C 16 16.398438 17.800781 18.199219 20 18.199219 C 22.199219 18.199219 24 16.398438 24 14.199219 C 24 12 22.199219 10.199219 20 10.199219 Z M 15.601562 9 L 11.285156 14.3125 L 8.28125 9 Z M 4 17.398438 C 2.238281 17.398438 0.800781 15.960938 0.800781 14.199219 C 0.800781 12.441406 2.238281 11 4 11 C 4.492188 11 4.960938 11.113281 5.378906 11.316406 L 3.679688 13.960938 C 3.601562 14.078125 3.558594 14.238281 3.640625 14.359375 C 3.71875 14.480469 3.839844 14.601562 3.960938 14.601562 L 7.109375 14.949219 C 6.769531 16.351562 5.5 17.398438 4 17.398438 Z M 7.199219 14.15625 L 4.679688 13.878906 L 6.042969 11.742188 C 6.738281 12.320312 7.1875 13.191406 7.199219 14.15625 Z M 8 14.246094 C 8 14.230469 8 14.214844 8 14.199219 C 8 12.933594 7.402344 11.796875 6.472656 11.0625 L 7.558594 9.359375 L 10.480469 14.519531 Z M 20 17.398438 C 18.238281 17.398438 16.800781 15.960938 16.800781 14.199219 C 16.800781 13.21875 17.25 12.335938 17.949219 11.746094 L 19.640625 14.398438 C 19.761719 14.601562 20 14.640625 20.199219 14.519531 C 20.398438 14.398438 20.441406 14.160156 20.320312 13.960938 L 18.621094 11.316406 C 19.039062 11.113281 19.507812 11 20 11 C 21.761719 11 23.199219 12.441406 23.199219 14.199219 C 23.199219 15.960938 21.761719 17.398438 20 17.398438 Z M 20 17.398438"/>
</svg>

<svg xmlns="http://www.w3.org/2000/svg" width="32" height="32" viewBox="0 0 24 24">
    <path d="M20 10.2c-.652 0-1.27.16-1.816.44l-1.391-2.163a.322.322 0 0 0-.078-.125l-1.156-2.313c-.079-.16-.2-.238-.36-.238h-1.597c-.243 0-.403.16-.403.398 0 .242.16.403.403.403h1.359l.8 1.597H7.84L7.12 7h1.277c.243 0 .403-.16.403-.398 0-.243-.16-.403-.403-.403H5.602c-.243 0-.403.16-.403.403 0 .238.16.398.403.398h.558l.961 1.605-1.305 2.036A3.96 3.96 0 0 0 4 10.199c-2.2 0-4 1.801-4 4 0 2.2 1.8 4 4 4a4.012 4.012 0 0 0 3.91-3.16l3.25.36h.04c.12 0 .241-.04.32-.118l4.867-5.988 1.133 1.777A3.992 3.992 0 0 0 16 14.2c0 2.198 1.8 4 4 4s4-1.802 4-4c0-2.2-1.8-4-4-4zM15.602 9l-4.317 5.313L8.281 9zM4 17.398A3.206 3.206 0 0 1 .8 14.2C.8 12.441 2.239 11 4 11c.492 0 .96.113 1.379.316l-1.7 2.645c-.077.117-.12.277-.038.398.078.121.199.243.32.243l3.148.347A3.211 3.211 0 0 1 4 17.4zm3.2-3.242l-2.52-.277 1.363-2.137a3.194 3.194 0 0 1 1.156 2.414zm.8.09V14.2a3.997 3.997 0 0 0-1.527-3.136l1.086-1.704 2.921 5.16zm12 3.152a3.206 3.206 0 0 1-3.2-3.199c0-.98.45-1.863 1.15-2.453l1.69 2.652c.122.204.36.243.56.122.198-.122.241-.36.12-.56l-1.699-2.644A3.149 3.149 0 0 1 20 11c1.762 0 3.2 1.441 3.2 3.2 0 1.76-1.438 3.198-3.2 3.198zm0 0"/>
</svg>
